!!!!SEGMENT: pl-kk--kk-i-1--001_anonim--deo-gratias.krn
!!!cenid: 15xx:657
!!!COM: Anonim
!!!COM-rismID: pe30004985
!!!CDT:
!!!CNT:
!!!OTL: Deo gratias
!!!PDT:
!!!AGN:
!!!SMS-siglum: PL-Kk
!!!SMS-shelfmark: Kk.I.1
!!!SMS-shelfwork: 001 W
!!!SMS-variant: PL-Kk Kk.I.1:Tenor:0389; PL-Kk Kk.I.1:Bassus:0562
!!!SMS-altvar: PL-Kk Kk.I.1:Tenor:0505; PL-Kk.I.1:Bassus:0690
!!!NIFC-rismSourceID: 300257955
!!!NIFC-islandoraID: pl-kk:1
!!!URL-pdf-islandora: https://repozytorium.nifc.pl/islandora/object/pl-kk%3A1/datastream/PDF/view
!!!URL-scan: https://polish.musicsources.pl/pl/lokalizacje/galeria/rekopisy/5736 @EN{Scan on Polish Music Sources Website} @PL{Skany w portalu Dziedzictwo Muzyki Polskiej w otwartym dostępie}
!!!ONB-nifc: UWAGA: Cantus (s. 1r, skan 0003), Altus (brak), Tenor (s. 1r, skan 0389), Bassus (s. 1r, skan 0562)
!!!AIN: 3 empty 1 tenor
!!!key:
**kern	**text	**kern	**text	**kern	**kern	**text
*part4	*part4	*part3	*part3	*part2	*part1	*part1
*staff4	*staff4	*staff3	*staff3	*staff2	*staff1	*staff1
*Iempty	*	*Itenor	*	*Iempty	*Iempty	*
*I"BASSVS	*	*I"TENOR	*	*I"ALTVS	*I"CANTVS	*
*I'B	*	*I'T	*	*I'A	*I'C	*
*ICvox	*	*ICvox	*	*ICvox	*ICvox	*
*clefF4	*	*clefC4	*	*clefC3	*clefC3	*
*k[]	*	*k[]	*	*k[]	*k[]	*
*C:	*	*C:	*	*C:	*C:	*
*M2/1	*	*M2/1	*	*M2/1	*M2/1	*
=1-	=1-	=1-	=1-	=1-	=1-	=1-
*xywh-#562:5723,541,4309,879	*	*xywh-#389:5681,620,4225,914	*	*	*xywh-#3:5516,557,4501,894	*
*2\right	*	*	*	*	*	*
!	!	!	!	!	!LO:TX:a:i:t=1. Fons Bonitatis	!
!LO:TX:a:i:t=4 Solenne	!	!LO:TX:a:i:t=2 Fons Bonitatis	!	!	!LO:TX:t=P:problem=alt do tego utworu jest w rękopisie Kk I.6 (wg katalogu Musicalia Vetera numer 34d)). 	!
2.G\	DE-	1G/	DE-	0ryy	1g\	DE-
4F\	-o	.	.	.	.	.
*	*	*lig	*	*	*	*
4D\	.	1A\	-o	.	2f\	.
4E\	.	.	.	.	.	.
*	*	*	*	*	*2\right	*
2F\	Gra-	.	.	.	2.a\	-o
=2-	=2-	=2-	=2-	=2-	=2-	=2-
2E\	-ti-	1B\	.	0ryy	.	.
.	.	.	.	.	4g\	.
2G\	-as	.	.	.	1g\	Gra-
*	*	*Xlig	*	*	*	*
*	*	*lig	*	*	*	*
1D\	.	1A\	.	.	.	.
.	.	.	.	.	2f\	.
=3-	=3-	=3-	=3-	=3-	=3-	=3-
4C/	.	1c\	.	0ryy	2g\	-ti-
4D/	.	.	.	.	.	.
4E\	.	.	.	.	4f\	.
4F\	.	.	.	.	4e\	-as
*	*	*Xlig	*	*	*	*
2G\	.	1B\	.	.	1d\	.
2GG/	.	.	.	.	.	.
=4-	=4-	=4-	=4-	=4-	=4-	=4-
2AA/	.	1A\	.	0ryy	4c\	.
.	.	.	.	.	4d\	.
2C/	.	.	.	.	4e\	.
.	.	.	.	.	4c/	.
1BB/	.	1G/	.	.	1d\	.
=5-	=5-	=5-	=5-	=5-	=5-	=5-
2AA/	.	0A\	.	0ryy	2c/	.
2D/	.	.	.	.	2d\	.
2C/	.	.	.	.	2e\	.
2D/	.	.	.	.	2f\	.
=6-	=6-	=6-	=6-	=6-	=6-	=6-
4GG/	.	1G/	.	0ryy	2g\	.
4AA/	.	.	.	.	.	.
4BB/	.	.	.	.	4f\	.
4C/	.	.	.	.	4e\	.
1D\	.	1F/	.	.	4d\	.
.	.	.	.	.	4c/	.
.	.	.	.	.	1d\	.
=7-	=7-	=7-	=7-	=7-	=7-	=7-
1AA/	.	1E/	.	0ryy	.	.
.	.	.	.	.	2c/	.
2r	.	1D/	.	.	2d\	.
*custos:BB-	*	*	*	*	*	*
2D/	.	.	.	.	2A/	.
!LO:LB:g=original	!	!	!	!	!	!
=8-	=8-	=8-	=8-	=8-	=8-	=8-
*xywh-#562:5664,1362,4376,764	*	*	*	*	*	*
*	*	*lig	*	*	*	*
2BB/	.	1D/	GRA-	0ryy	2.d\	.
2.D/	DE-	.	.	.	.	.
*	*	*	*	*	*custos:A	*
.	.	.	.	.	4c/	.
*	*	*	*	*	*xywh-#3:5511,1244,4473,791	*
!	!	!	!	!	!LO:LB:g=original	!
.	.	1A\	.	.	4A/	DE-
4C/	-o	.	.	.	4B/	.
4AA/	gra-	.	.	.	4c\	-o
4BB/	.	.	.	.	4d\	.
*	*	*Xlig	*	*	*	*
=9-	=9-	=9-	=9-	=9-	=9-	=9-
4C/	.	1G/	.	0ryy	4e\	.
4D/	-ti-	.	.	.	4f\	.
2E\	-as	.	.	.	2g\	gra-
2D/	.	1A\	.	.	2f\	-ti-
2C/	.	.	.	.	2e\	-as
=10-	=10-	=10-	=10-	=10-	=10-	=10-
1BB/	.	1B\	.	0ryy	1d\	.
*	*	*lig	*	*	*	*
2AA/	.	1c\	.	.	2c/	.
1A\	.	.	.	.	2A/	.
=11-	=11-	=11-	=11-	=11-	=11-	=11-
.	.	1B\	.	0ryy	2B/	.
2G\	DE-	.	.	.	2.e\	.
*	*	*Xlig	*	*	*	*
*	*	*lig	*	*	*	*
2F\	-o	1A\	.	.	.	.
.	.	.	.	.	4d\	.
2D/	.	.	.	.	1d\	.
=12-	=12-	=12-	=12-	=12-	=12-	=12-
1E\	gra-	1G/	.	0ryy	.	.
.	.	.	.	.	2c/	.
*	*	*Xlig	*	*	*	*
*	*	*custos:G	*	*	*	*
2D/	-(ti)-	1F/	.	.	2d\	.
2F\	-as	.	.	.	2.a\	.
!	!	!LO:LB:g=original	!	!	!	!
=13-	=13-	=13-	=13-	=13-	=13-	=13-
*	*	*xywh-#389:5497,1449,4420,730	*	*	*	*
*	*	*lig	*	*	*	*
1E\	.	1G/	-TI-	0ryy	.	.
.	.	.	.	.	4g\	.
.	.	.	.	.	1g\	.
1D\	.	1A\	.	.	.	.
.	.	.	.	.	2f\	De-
*	*	*Xlig	*	*	*	*
=14-	=14-	=14-	=14-	=14-	=14-	=14-
1GG/	.	1G/	-AS	0ryy	1.g\	-o
1.C/	.	0El/	.	.	.	.
.	.	.	.	.	2f\	gra-
=15-	=15-	=15-	=15-	=15-	=15-	=15-
.	.	.	.	0ryy	2e\	-(ti)-
2BB/	.	.	.	.	2d\	-as
2AA/	.	0.El/	.	.	2c/	.
2GG/	.	.	.	.	2B/	.
=16-	=16-	=16-	=16-	=16-	=16-	=16-
1AA/	.	.	.	0ryy	2A/	.
.	.	.	.	.	2c/	.
1EEl/	.	.	.	.	1Bl/	.
==	==	==	==	==	==	==
*-	*-	*-	*-	*-	*-	*-
!!!system-decoration: s1,s2,s3,s4
!!!RDF**kern: l = terminal long
!!!ENC: Mateusz Solarz
!!!END: 2022-02-10
!!!ENC: Leszek Kubiak
!!!END: 2022-02-11
!!!ENC-iiif: Antoni Szymański
!!!END-iiif: 2022-08-30
!!!YEC: Copyright 2022 Narodowy Instytut Fryderyka Chopina (https://polishscores.org)
!!!YEM: Licence CC BY 4.0 (https://creativecommons.org/licenses/by/4.0)
!!!IIIF: https://repozytorium.nifc.pl/islandora/object/pl-kk%3A1/datastream/IIIF/view
